svg/set/MAT/WM.svg

<?xml version="1.0" encoding="utf-8"?>
<!-- Generator: Adobe Illustrator 15.1.0, SVG Export Plug-In . SVG Version: 6.00 Build 0)  -->
<!DOCTYPE svg PUBLIC "-//W3C//DTD SVG 1.1//EN" "http://www.w3.org/Graphics/SVG/1.1/DTD/svg11.dtd">
<svg version="1.1" id="Layer_1" xmlns="http://www.w3.org/2000/svg" xmlns:xlink="http://www.w3.org/1999/xlink" x="0px" y="0px"
	 width="155px" height="155px" viewBox="0 0 155 155" enable-background="new 0 0 155 155" xml:space="preserve">
<g id="Layer_1_1_">
</g>
<g id="Layer_3" display="none">
</g>
<g>
	<path d="M77.897,26.466l12.658,12.658l31.727-22.083c-26.328-19.375-62.443-19.375-88.77,0l31.727,22.083L77.897,26.466z
		 M44.239,17.244c20.847-11.632,46.47-11.632,67.316,0l-20.313,14.14L77.897,18.037L64.552,31.383L44.239,17.244z"/>
	<path d="M39.513,90.168L26.854,77.51l12.657-12.658L17.428,33.126c-19.374,26.326-19.374,62.441,0.001,88.769L39.513,90.168z
		 M17.632,43.853L31.77,64.164L18.425,77.51l13.346,13.346l-14.139,20.312C6.001,90.322,6.001,64.697,17.632,43.853z"/>
	<path d="M120.511,77.509l-11.969-11.968l42.77-61.446L89.867,46.865l-11.97-11.97l-11.97,11.969L4.483,4.096l42.769,61.445
		L35.282,77.51l11.971,11.97l-42.77,61.444l61.445-42.769l11.968,11.967l11.97-11.969l61.445,42.771l-42.77-61.446L120.511,77.509z
		 M127.419,127.03l-38.242-26.617l-11.28,11.28l-11.28-11.279l-38.24,26.616l26.617-38.239L43.712,77.51l11.281-11.281
		l-26.617-38.24l38.24,26.617l11.281-11.281l11.281,11.282l38.24-26.618l-26.617,38.24l11.279,11.28l-11.28,11.281L127.419,127.03z"
		/>
	<path d="M116.284,64.853l12.656,12.656l-12.658,12.657l22.084,31.727c19.375-26.325,19.375-62.44,0.001-88.767L116.284,64.853z
		 M138.163,111.166l-14.139-20.313l13.345-13.345l-13.345-13.345l14.139-20.311C149.793,64.697,149.793,90.321,138.163,111.166z"/>
	<path d="M60.57,77.51l17.326,17.326l17.327-17.327L77.897,60.183L60.57,77.51z M77.896,86.406l-8.897-8.896l8.898-8.897
		l8.896,8.896L77.896,86.406z"/>
	<path d="M77.896,128.552L65.24,115.896l-31.727,22.084c26.326,19.373,62.441,19.373,88.767,0l-31.727-22.085L77.896,128.552z
		 M111.554,137.775c-20.846,11.63-46.469,11.63-67.313,0l20.312-14.139l13.345,13.344l13.345-13.345L111.554,137.775z"/>
</g>
</svg>

<?xml version="1.0" encoding="UTF-8" standalone="no"?>
<!-- Generator: Adobe Illustrator 15.1.0, SVG Export Plug-In . SVG Version: 6.00 Build 0)  -->

<svg
   version="1.1"
   id="Layer_1"
   x="0px"
   y="0px"
   width="149.99976"
   height="150"
   viewBox="0 0 149.99976 150"
   enable-background="new 0 0 155 155"
   xml:space="preserve"
   xmlns="http://www.w3.org/2000/svg"
   xmlns:svg="http://www.w3.org/2000/svg"><defs
   id="defs6" />
<g
   id="Layer_1_1_"
   transform="translate(-2.897625,-2.50975)">
</g>
<g
   id="Layer_3"
   display="none"
   transform="translate(-2.897625,-2.50975)">
</g>
<g
   id="g6"
   transform="translate(-2.897625,-2.50975)">
	<path
   d="m 77.897,26.466 12.658,12.658 31.727,-22.083 c -26.328,-19.375 -62.443,-19.375 -88.77,0 L 65.239,39.124 Z M 44.239,17.244 c 20.847,-11.632 46.47,-11.632 67.316,0 L 91.242,31.384 77.897,18.037 64.552,31.383 Z"
   id="path1" />
	<path
   d="M 39.513,90.168 26.854,77.51 39.511,64.852 17.428,33.126 C -1.946,59.452 -1.946,95.567 17.429,121.895 Z M 17.632,43.853 31.77,64.164 18.425,77.51 31.771,90.856 17.632,111.168 C 6.001,90.322 6.001,64.697 17.632,43.853 Z"
   id="path2" />
	<path
   d="M 120.511,77.509 108.542,65.541 151.312,4.095 89.867,46.865 77.897,34.895 65.927,46.864 4.483,4.096 47.252,65.541 35.282,77.51 l 11.971,11.97 -42.77,61.444 61.445,-42.769 11.968,11.967 11.97,-11.969 61.445,42.771 -42.77,-61.446 z m 6.908,49.521 -38.242,-26.617 -11.28,11.28 L 66.617,100.414 28.377,127.03 54.994,88.791 43.712,77.51 54.993,66.229 28.376,27.989 66.616,54.606 77.897,43.325 89.178,54.607 127.418,27.989 100.801,66.229 112.08,77.509 100.8,88.79 Z"
   id="path3" />
	<path
   d="m 116.284,64.853 12.656,12.656 -12.658,12.657 22.084,31.727 c 19.375,-26.325 19.375,-62.44 10e-4,-88.767 z m 21.879,46.313 -14.139,-20.313 13.345,-13.345 -13.345,-13.345 14.139,-20.311 c 11.63,20.845 11.63,46.469 0,67.314 z"
   id="path4" />
	<path
   d="M 60.57,77.51 77.896,94.836 95.223,77.509 77.897,60.183 Z m 17.326,8.896 -8.897,-8.896 8.898,-8.897 8.896,8.896 z"
   id="path5" />
	<path
   d="M 77.896,128.552 65.24,115.896 33.513,137.98 c 26.326,19.373 62.441,19.373 88.767,0 L 90.553,115.895 Z m 33.658,9.223 c -20.846,11.63 -46.469,11.63 -67.313,0 l 20.312,-14.139 13.345,13.344 13.345,-13.345 z"
   id="path6" />
</g>
</svg>
